icons/user-2-line.svg

<svg xmlns="http://www.w3.org/2000/svg" width="24" height="24" fill="none"><g clip-path="url(#a)"><g><path fill="#121212" d="M4 22C4 19.8783 4.84285 17.8434 6.34315 16.3431C7.84344 14.8429 9.87827 14 12 14C14.1217 14 16.1566 14.8429 17.6569 16.3431C19.1571 17.8434 20 19.8783 20 22H4ZM13 16.083V20H17.659C17.3015 18.9914 16.6812 18.0966 15.8621 17.408C15.0431 16.7193 14.055 16.2619 13 16.083ZM11 20V16.083C9.945 16.2619 8.95691 16.7193 8.13785 17.408C7.31879 18.0966 6.69847 18.9914 6.341 20H11ZM12 13C8.685 13 6 10.315 6 7C6 3.685 8.685 1 12 1C15.315 1 18 3.685 18 7C18 10.315 15.315 13 12 13ZM12 11C14.21 11 16 9.21 16 7C16 4.79 14.21 3 12 3C9.79 3 8 4.79 8 7C8 9.21 9.79 11 12 11Z"/></g></g><defs><clipPath id="a"><rect width="24" height="24" fill="white"/></clipPath></defs></svg>

<svg width="24" height="24" fill="none" xmlns="http://www.w3.org/2000/svg"><g clip-path="url(#a)"><path d="M4 22a8 8 0 0 1 16 0H4Zm9-5.917V20h4.659A6.009 6.009 0 0 0 13 16.083ZM11 20v-3.917A6.008 6.008 0 0 0 6.341 20H11Zm1-7c-3.315 0-6-2.685-6-6s2.685-6 6-6 6 2.685 6 6-2.685 6-6 6Zm0-2c2.21 0 4-1.79 4-4s-1.79-4-4-4-4 1.79-4 4 1.79 4 4 4Z" /></g><defs><clipPath id="a"><path fill="#fff" d="M0 0h24v24H0z"/></clipPath></defs></svg>
